!!!!SEGMENT: pl-wnifc--13846--089_anonim--piesni-polskie-i-ruskie-ludu-galicyjskiego-89-ach-juz-sie-zbliza-ta-chwila-rozstania.krn
!!!kernsource:
!!!cenid: 18xx:3311
!!!COM: Anonim
!!!COM-rismID: pe30004985
!!!CDT:
!!!CNT:
!!!GTL: Pieśni polskie i ruskie ludu galicyjskiego
!!!OTL: 89. Ach już się zbliża ta chwila rozstania
!!!OMV: 089
!!!PDT: 1833
!!!AGN:
!!!SMS-siglum: PL-Wnifc
!!!SMS-shelfmark: 13846
!!!SMS-shelfwork: 001-089 G
!!!NIFC-rismSourceID: 1001036701
!!!NIFC-rismChildID: 1001039009
!!!NIFC-islandoraID: nifc:210326
!!!URL-pdf-islandora: https://repozytorium.nifc.pl/islandora/object/nifc%3A210326/datastream/PDF/view
!!!URL-scan:
!!!ONB-nifc:
!!!OMD: Andante
!!!AIN: 1 piano 1 vox
!!!key: E-
**kern	**kern	**kern	**text
*part2	*part2	*part1	*part1
*staff3	*staff2	*staff1	*staff1
*>[A,B,B]	*>[A,B,B]	*>[A,B,B]	*>[A,B,B]
*>A	*>A	*>A	*>A
*I"FORTEPIAN.	*I"FORTEPIAN.	*I"GŁOS.	*
*Ipiano	*Ipiano	*Ivox	*
*ICklav	*ICklav	*ICvox	*
*IGacmp	*IGacmp	*IGsolo	*
*clefF4	*clefG2	*clefG2	*
*k[b-e-a-]	*k[b-e-a-]	*k[b-e-a-]	*
*E-:	*E-:	*E-:	*
*M4/4	*M4/4	*M4/4	*
*met(c)	*met(c)	*met(c)	*
!	!LO:TX:a:t=E. 50.:rj	!	!
4r	8b-\|L	8b-\	Ach
.	8cc\|	8cc\	już
8r	8dd\|J	8dd\	się
=1	=1	=1	=1
*^	*	*	*
!LO:N:vis=2	!	!	!	!
8EE-/L	2EE-\	4.ee-\^<	4.ee-\	zbli-
8B-/	.	.	.	.
8G/	.	.	.	.
8B-/J	.	8dd\	8dd\	-ża
8G/L	4G\ 4E-\	8cc\L	8cc\	ta
8B-/	.	8b-\	8b-\	chwi-
8BB-/	4BB-\	8a-\	8a-/	-la
8B-/J	.	8g\J	8g/	roz-
!!LO:LB:g=original
=2	=2	=2	=2	=2
8F/L 8D/	4D\	(<8b-/<L	(8b-/L	-sta-
8B-/	.	8a-/J)	8a-/J)	.
8BB-/	4ryy	4a-/	4a-/	-nia,
8B-\J	.	.	.	.
8F/L	4F\ 4D\	8r	8r	.
8B-/	.	8a-/L	8a-/	co
8BB-/	4BB-\	8g/	8g/	mo-
8B-/J	.	8a-/J	8a-/	-że
=3	=3	=3	=3	=3
8D/L	4D\	4.ff\	4.ff\	wiecz-
8B-/	.	.	.	.
8BB-/	4BB-\	.	.	.
8B-/J	.	8ee-\	8ee-\	-nie
8F/L	4F\	8dd\L	8dd\	roz-
8B-/	.	8cc\	8cc\	-łą-
8BB-/	4BB-\	8b-\	8b-\	-czy
8B-/J	.	8f\J	8f/	mnie
=4	=4	=4	=4	=4
!	!LO:N:vis=2	!	!	!
2E-/	8E-\L	(<8a-/L	(<8a-/L	z_to-
.	8G\	8g/J)	8g/J)	.
.	8B-\	4g/	4g/	-bą,
.	8e-\J	.	.	.
8ryy	8E-\	8r	8r	.
*v	*v	*	*	*
!!LO:LB:g=original
=!|:	=!|:	=!|:	=!|:
*>B	*>B	*>B	*>B
4r	8g/L	8g/	mo-
.	8g/	8g/	-że
8r	8g/J	8g/	o-
=5	=5	=5	=5
*^	*	*	*
!LO:N:vis=2	!	!	!	!
!LO:S:s=1:note:problem=note-level slur	!	!	!	!
(<8C/L	2C\	4.cc\	4.cc\	-sta-
8E-/	.	.	.	.
8G/	.	.	.	.
8E-/J)	.	8bn\	8bn\	-tnie
!LO:N:vis=2	!	!	!	!
!LO:S:s=1:note:problem=note-level slur	!	!	!	!
(<8F/L	2C\	8b\|L	8b\	są
8G/	.	8dd\|	8dd\	te
8Bn/	.	(>8.gg\^<	8.gg\	po-
8d/J)	.	.	.	.
.	.	16ff\Jk)	16ff\	-że-
=6	=6	=6	=6	=6
!LO:S:s=1:note:problem=note-level slur	!	!	!	!
!LO:N:vis=2	!	!	!	!
(<8C/L	2C\	(>8ff\L	(>8ff\L	-gna-
8E-/	.	8ee-\J)	8ee-\J)	.
8G/	.	4ee-\	4ee-\	-nia,
8c/J)	.	.	.	.
4B-X/	4A-\ 4F\ 4D\	8r	8r	.
.	.	8b-X\L	8b-X\	mo-
4f\ 4B-\ 4A-\	4ryy	8cc\	8cc\	-że
.	.	8dd\J	8dd\	o-
*v	*v	*	*	*
!!LO:LB:g=original
=7	=7	=7	=7
4e-\ 4B-\ 4G\	8ee-\L	(>8ee-\	-sta-
.	8g\J	8g\	.
.	(<8qdd/	.	.
4G\ 4E-\	(>8.cc\L)	8.cc\)	.
.	16b-X\Jk)	16b-\	-tni
4BB-/ 4BBB-/	8b-/L 8d/	8b-\	raz
.	8b-/ 8d/	8b-\	mó-
8.D/L 8.BB-/	8.a-/ 8.B-/	8.a-/	-wi-
16A-\Jk	16d/Jk	16d/	-my
=8	=8	=8	=8
*	*^	*	*
[>4G\ 4E-\	8f/L	4B-\	8f/	z_so-
.	8e-/J	.	8e-/	-bą.
8G\] 8E-\	4r	4ryy	4r	.
8r	.	.	.	.
8r	8r	8ryy	8r	.
*	*v	*v	*	*
==	==	==	==
*-	*-	*-	*-
!!!system-decoration: <s1>{(s2,s3)}
!!!RDF**kern: > = above
!!!RDF**kern: < = below
!!!RDF**kern: | = vertical stroke
!!!ENC: Andrzej Kubiczek
!!!END: 2021-11-11
!!!YEC: Copyright 2022 Narodowy Instytut Fryderyka Chopina (https://polishscores.org)
!!!YEM: License CC-BY-4.0 (https://creativecommons.org/licenses/by/4.0)
